X:1
T:B minor Samuel Holyoke, 1797
T:Anne Steele, 1760 Pardoning Love        86. 86. (C. M.)
T:Mentz Transcribed from The Village Harmony, 1803.
%%score [ 1 2 3 4 ]
L:1/8
Q:1/4=170
M:2/2
K:D
V:1 treble nm="Tr." snm="Tr."
V:2 treble nm="C." snm="C."
V:3 treble-8 nm="T." snm="T."
V:4 bass nm="B." snm="B."
V:1
"^1. Thy pardoning love, so free, so sweet,   Dear Savior,  I   a – dore;       O  keep  me  at  thy  sa –cred  feet,  And let       me   rove     no  more." F4 | %1
 F4 B4 | ^A4 B4 | (e2 d2) c4 | B8 | z4 ^A4 | B4 B4 | c4 B4 | ^A8 | z4 A4 | A4 c4 | d4 d4 | %12
 (e2 d2) (c2 B2) | A6 A2 | (B3 c) d4 | (c3 B) ^A4 | B8 |] %17
V:2
"^2. How oft, a–las, this wretched heart   Has wandered from the Lord! How oft  my roving  thoughts depart, Forgetful   of        his  word.""^3. Yet sovereign mercy calls,  re–turn:    Dear Lord, and may I come?  My vile in–gra–ti–tude  I  mourn;  Oh  take     the  wanderer home." F4 | %1
 F4 F4 | F4 F4 | G4 F4 | F8 | z4 F4 | F4 F4 | G4 F4 | F8 | z4 F4 | F4 A4 | A4 A4 | A4 ^G4 | %13
 (A2 E4) E2 | (F2 GA) A4 | G4 F4 | F8 |] %17
V:3
"^4. And canst thou, wilt thou yet forgive,  And bid my crimes remove? And shall a pardoned re–bel  live  To  speak  thy  wondrous  love?" F4 | %1
 B4 d4 | c4 d4 | (c2 B2) ^A4 | B8 | z4 c4 | d4 d4 | e4 d4 | c8 | z4 c4 | d4 e4 | f4 f4 | %12
 (g2 f2) (e2 d2) | c6 c2 | (d3 e) f4 | (e3 d) c4 | B8 |] %17
V:4
"^5. Almighty grace, thy healing  power   How glorious, how divine!  That can to bliss and  life  re–store  So  vile       a     heart     as   mine." B,,4 | %1
 D,4 B,,4 | F,4 D,4 | E,4 F,4 | B,,8- | B,,4 F,4 | B,4 B,4 | ^A,4 B,4 | F,8- | F,4 E,4 | D,4 A,4 | %11
 D4 D,4 | (C,2 D,2) E,4 | A,6 G,2 | (F,3 E,) D,4 | E,4 F,4 | B,,8 |] %17

